**kern
*I"Soprano
*I'S.
*clefG2
*k[f#c#g#d#]
*E:
*M4/4
*met(c)
4E 4e 4g# 4b
=1
[8D#L [8f# [8b
8D#J] 8f#] 8g# 8b]
[8BBL 8e [8a [8b
8BBJ] 8d# 8a] 8b]
4E 4e 4g# 4b
8F#L 8A [8f# [8ddn
8G#J 8B 8f#] 8dd]
=2
[16ALL 16c# [16e [16cc#
16AJ_ 16dn 16e] 16cc#_
8AJ] [8e [8a 8cc#]
[8EL 8e] 8a] [8b
8EJ] 8dn 8g# 8b]
4AA; 4c# 4e 4a
4D#X 4B 4f# 4b
=3
8EL [8B [8e [8g#
8F#J 8B_ 8e] 8g#]
[8G#L 8B] 8e
8G#J] 8A 8d# 8f#
4C# 4G# 4e 4g#
[8F#L [8c# [8a#X
8EJ 8F#] 8c#] 8a#]
=
8D#L 8F# 8f# [8b
16C#L [16B 16e 16b_
16BBJJ 16B_ 16d# 16b]
[8F#L 8B] [8e [8cc#
8F#J] 8A#X 8e] 8cc#]
4BB; 4F# 4d# 4b
=4
[8EL [8G# 8e [8b
8EJ] 8G#] 8f# 8b]
=5
[8C#L [8c# 8g# [8ee
8C#J] 8c#] 8a#X 8ee]
8D#L [8F# [8b [8dd#
8EJ 8F#] 8b] 8dd#]
4F# 4f# 4a#X 4cc#
4B 4f# 4b 4dd#
=6
8G#L [8B [8b 8ee
8EJ 8B] 8b] 8dd#
4F# 4A#X 4f# 4cc#
4BB; 4d# 4f# 4b
4E 4e 4g# 4b
=7
[8G#L [8B 8e [8ee
8G#J] 8B] 8f# 8ee]
4E 4e 4g# 4b
8AL [8e [8a [8cc#
8BJ 8e] 8a] 8cc#]
[8c#L 8e 8g#
8c#J] 8f# 8a
=
4E#X 4dn 4g# 4b
4F# 4c# 4f# 4a
4C#; 4c# 4e#X 4g#
=8
4E 4B 4e 4g#
=9
4BB 4B 4d# 4f#
8C#L [8c# [8e [8a
8D#J 8c#] 8e] 8a]
4E 4B 4e 4g#
[8BBL [8B 8d# [8f#
8BBJ] 8B] 8f#]
=10
4AA#X [4F# 4c#
4BB 4F#] 4B 4d#
4EE; 4G# 4B 4e
==
*-
